X: 315
T:The Black Cock of Whickham
M:9/8
L:1/8
Z:Andrew Pickering
K:G
D2 B D2 B BAG|D2 B D2 B BAG|E2 G C2 E GFE|DED DEG BGE|
D2 B D2 B BAG|E2 c E2 c cAG|F2 A D2 d edc|
1BdB AGF GFE:|2BdB AGF Ggf||
e3 dcB d3|ded dcB dgf|e3 edc d2 B|cBA ABG FED|
DGB G2 D G2 F|EAc A2 G ABG|FAd cBA edc|
1BdB AGF Ggf:|2BdB AGF G3||
<end>
<start>
